X:665
T: Nelson's Pillar
T: Col\'un Nelson
S: B.Breathnach:"Ceol Rince na hEireann" IV/133(ii)
Z: B.Black
L: 1/8
M: 4/4
R: reel
K: D
DFAd edfd|(3Bcd AF GFEF|DFAd edfd|BdAG FD D2 :|
fd (3ddd bdfd|gefd cdeg|fd (3ddd BdAd|FdEc dD D2 :|
